public/images/logos/hugo-boss.svg

<svg xmlns="http://www.w3.org/2000/svg" width="993" height="120" fill="none"><path fill="#000" d="M70.9 2.8v42.5H31.2V2.8H0v113.4h31.2V70.8h39.7v45.4h31.2V2.8H70.9ZM180 119c-25.5-.1-51-17-51-51V2.8h31.2v68c0 14.2 11.4 19.8 19.9 19.8 8.5 0 19.9-5.7 19.9-19.8v-68h31V68c0 34-25.5 51.1-51 51Zm130.4 0c-32.6 0-59.5-25.5-59.5-59.5S277.8 0 310.4 0c22.7 0 36.8 11.3 36.8 11.3l-17.7 22s-6.4-5.7-19.1-5.7c-17 0-29 14.9-29 31.9s12 31.2 29 31.2c14.2 0 21.3-5.7 21.3-5.7V70.8h-24.1V46h51v53.2S343 119 310.4 119Zm126.2-90.7c-17 0-29 14.2-29 31.2s12 31.2 29 31.2 29-14.2 29-31.2-12-31.2-29-31.2Zm0 90.7c-32.6 0-59.5-25.5-59.5-59.5S404 0 436.6 0s59.5 25.5 59.5 59.5-26.9 59.5-59.5 59.5Zm299-90.7c-17 0-29 14.2-29 31.2s12 31.2 29 31.2 29-14.2 29-31.2c.1-17-12-31.2-29-31.2Zm0 90.7c-32.6 0-59.5-25.5-59.5-59.5S703 0 735.6 0s59.5 25.5 59.5 59.5-26.9 59.5-59.5 59.5Zm126.2-35.4c0 4.2-4.2 7.8-11.3 7.8-15.6 0-25.5-10.6-25.5-10.6l-17 22.7s14.2 15.6 42.5 15.6c22.7 0 42.5-14.2 42.5-35.4 0-34-53.9-36.9-53.9-48.2 0-4.2 5.7-7.8 14.2-7.8 11.3 0 17.7 5.7 17.7 5.7l16.3-22S873.1.1 850.5.1c-21.3 0-39.7 15.6-39.7 35.4-.1 33.9 51 35.3 51 48.1ZM644.9 53.8c5-6.4 7.1-12.7 7.1-19.8 0-17.3-14-31.2-31.2-31.2H567v113.4h58.8c19.2 0 34.7-15.6 34.7-34.7 0-11.9-5.7-22-15.6-27.7ZM596 27.6h17.7c5.5 0 9.9 4.4 9.9 9.9s-4.4 9.9-9.9 9.9H596V27.6Zm23.4 63.1H596V69.4h23.4c5.9 0 10.6 4.8 10.6 10.6 0 5.9-4.7 10.7-10.6 10.7ZM961 83.6c0 4.2-4.2 7.8-11.3 7.8-15.6 0-25.5-10.6-25.5-10.6l-17 22.7s14.2 15.6 42.5 15.6c22.7 0 42.5-14.2 42.5-35.4 0-34-53.9-36.9-53.9-48.2 0-4.2 5.7-7.8 14.2-7.8 11.3 0 17.7 5.7 17.7 5.7l16.3-22S972.3.1 949.7.1C928.4.1 910 15.7 910 35.5c-.1 33.9 51 35.3 51 48.1Z"/></svg>

<svg width="993" height="120" viewBox="0 0 993 120" fill="none" xmlns="http://www.w3.org/2000/svg">
<path d="M70.9 2.8V45.3H31.2V2.8H0V116.2H31.2V70.8H70.9V116.2H102.1V2.8H70.9ZM180 119C154.5 118.9 129 102 129 68V2.8H160.2V70.8C160.2 85 171.6 90.6 180.1 90.6C188.6 90.6 200 84.9 200 70.8V2.8H231V68C231 102 205.5 119.1 180 119ZM310.4 119C277.8 119 250.9 93.5 250.9 59.5C250.9 25.5 277.8 0 310.4 0C333.1 0 347.2 11.3 347.2 11.3L329.5 33.3C329.5 33.3 323.1 27.6 310.4 27.6C293.4 27.6 281.4 42.5 281.4 59.5C281.4 76.5 293.4 90.7 310.4 90.7C324.6 90.7 331.7 85 331.7 85V70.8H307.6V46H358.6V99.2C358.6 99.2 343 119 310.4 119ZM436.6 28.3C419.6 28.3 407.6 42.5 407.6 59.5C407.6 76.5 419.6 90.7 436.6 90.7C453.6 90.7 465.6 76.5 465.6 59.5C465.6 42.5 453.6 28.3 436.6 28.3ZM436.6 119C404 119 377.1 93.5 377.1 59.5C377.1 25.5 404 0 436.6 0C469.2 0 496.1 25.5 496.1 59.5C496.1 93.5 469.2 119 436.6 119ZM735.6 28.3C718.6 28.3 706.6 42.5 706.6 59.5C706.6 76.5 718.6 90.7 735.6 90.7C752.6 90.7 764.6 76.5 764.6 59.5C764.7 42.5 752.6 28.3 735.6 28.3ZM735.6 119C703 119 676.1 93.5 676.1 59.5C676.1 25.5 703 0 735.6 0C768.2 0 795.1 25.5 795.1 59.5C795.1 93.5 768.2 119 735.6 119ZM861.8 83.6C861.8 87.8 857.6 91.4 850.5 91.4C834.9 91.4 825 80.8 825 80.8L808 103.5C808 103.5 822.2 119.1 850.5 119.1C873.2 119.1 893 104.9 893 83.7C893 49.7 839.1 46.8 839.1 35.5C839.1 31.3 844.8 27.7 853.3 27.7C864.6 27.7 871 33.4 871 33.4L887.3 11.4C887.3 11.4 873.1 0.1 850.5 0.1C829.2 0.1 810.8 15.7 810.8 35.5C810.7 69.4 861.8 70.8 861.8 83.6ZM644.9 53.8C649.9 47.4 652 41.1 652 34C652 16.7 638 2.8 620.8 2.8H567V116.2H625.8C645 116.2 660.5 100.6 660.5 81.5C660.5 69.6 654.8 59.5 644.9 53.8ZM596 27.6H613.7C619.2 27.6 623.6 32 623.6 37.5C623.6 43 619.2 47.4 613.7 47.4H596V27.6ZM619.4 90.7H596V69.4H619.4C625.3 69.4 630 74.2 630 80C630 85.9 625.3 90.7 619.4 90.7ZM961 83.6C961 87.8 956.8 91.4 949.7 91.4C934.1 91.4 924.2 80.8 924.2 80.8L907.2 103.5C907.2 103.5 921.4 119.1 949.7 119.1C972.4 119.1 992.2 104.9 992.2 83.7C992.2 49.7 938.3 46.8 938.3 35.5C938.3 31.3 944 27.7 952.5 27.7C963.8 27.7 970.2 33.4 970.2 33.4L986.5 11.4C986.5 11.4 972.3 0.1 949.7 0.1C928.4 0.1 910 15.7 910 35.5C909.9 69.4 961 70.8 961 83.6Z" fill="black"/>
</svg>
